assets/images/the-washington-post.svg

<svg width="220" height="32" viewBox="0 0 220 32" fill="none" xmlns="http://www.w3.org/2000/svg">
<path fill-rule="evenodd" clip-rule="evenodd" d="M4.12351 11.7149C4.55673 10.5416 5.1524 9.62101 5.91053 8.94411C6.00981 8.89899 6.11812 8.88094 6.22642 8.86289C6.33472 8.85386 6.59646 8.84484 7.02065 8.84484C7.25531 8.84484 7.45387 8.86289 7.63438 8.88996C7.81488 8.92606 7.99539 8.98924 8.18492 9.07949C8.37445 9.17877 8.60009 9.30513 8.8528 9.47661L5.63075 12.0398L6.38888 12.6445V21.1825C5.56757 20.7854 4.88164 20.1446 4.43037 19.3503C3.7986 18.2583 3.48271 16.7871 3.48271 14.955C3.47369 13.9622 3.6903 12.8792 4.12351 11.7149ZM3.82568 8.43869C4.01521 8.43869 4.25889 8.4748 4.55673 8.53797C4.85457 8.60115 5.12533 8.66433 5.37804 8.72751C3.60907 9.51271 2.23721 10.8033 1.2715 12.6174C0.432142 14.2149 -0.00107467 15.9929 0.00795068 17.807C0.00795068 20.1265 0.811207 22.1121 2.42675 23.7637C4.04228 25.4154 6.00981 26.2457 8.3203 26.2457C10.5496 26.2457 12.4449 25.3883 13.9792 23.6825C15.5135 21.9767 16.2897 19.9641 16.2897 17.6445C16.0821 18.1319 15.8384 18.5381 15.5767 18.863C15.2428 19.2601 14.8637 19.6301 14.4575 19.955C14.1417 20.2258 13.8528 20.4334 13.6001 20.5688C13.3474 20.7041 13.0225 20.8576 12.6164 21.029V9.63907C13.1218 9.43148 13.5279 9.21487 13.8348 8.98924C14.1417 8.77263 14.4756 8.44772 14.8366 8.02353C15.7662 6.99464 16.2807 5.8394 16.389 4.57585C15.7121 5.01809 15.1074 5.343 14.5658 5.55961C14.0243 5.76719 13.4196 5.9116 12.7518 5.97478C12.6434 5.97478 12.499 5.9838 12.3095 6.00185C11.5694 6.00185 10.4683 5.71304 9.00623 5.13542C7.54412 4.5578 6.38888 4.26899 5.54049 4.26899C3.8708 4.26899 2.53505 5.05419 1.52421 6.60655C0.621675 7.99645 0.161382 9.64809 0.161382 11.5705C0.287737 10.9838 0.594599 10.4243 1.08197 9.89177C1.44298 9.49466 1.85815 9.1517 2.31844 8.88094C2.76971 8.59213 3.27513 8.43869 3.82568 8.43869ZM19.2229 26.0832L21.9757 23.0146L20.5858 21.5615V13.3395L21.38 12.807L23.5912 14.4857V25.3341C23.5912 25.9479 23.5551 26.4713 23.4829 26.9045C23.4197 27.3107 23.2482 27.6988 22.9955 28.0237L22.2194 28.9894C21.8674 29.4226 21.4341 29.7656 20.9107 30.0183C21.9666 29.91 22.8331 29.6753 23.5009 29.3053C24.1779 28.9352 24.8728 28.3486 25.5858 27.5544C26.1093 26.9587 26.5064 26.3721 26.7681 25.7854C27.0389 25.1807 27.2104 24.5399 27.2916 23.8901V11.7329L26.3439 11.7961L23.3746 9.80152L21.2266 11.5705L20.5316 11.1914V5.18055L19.8998 3.81772L17.0839 6.57045V22.1572L16.2265 23.1681L19.2229 26.0832ZM28.6454 22.6356L33.7357 25.8576L38.5733 20.7673L35.9469 22.6356L32.7249 20.3251V18.177L38.483 13.872L34.8187 8.93509L28.9703 13.0145V21.9316L28.6454 22.6356ZM45.5679 6.7329V12.6445C45.1438 12.6896 44.8008 12.7618 44.5391 12.8701C44.2773 12.9784 43.9975 13.1589 43.6997 13.4117C42.8513 14.0705 42.4361 14.9099 42.4361 15.9388C42.4271 16.2637 42.4722 16.5796 42.5625 16.8864C42.8603 16.6337 43.1492 16.4622 43.4289 16.381C43.7177 16.2998 44.0697 16.2546 44.4939 16.2546C44.7015 16.2546 44.873 16.2817 44.9993 16.3178C45.1257 16.3629 45.3152 16.4442 45.5679 16.5705V22.3828L49.9362 26.7782L53.9525 22.6987L58.7901 26.7782L65.8389 19.946V8.24916L61.4706 4.90076L58.2486 7.80692L53.8532 4.90076L49.9362 8.18598V6.26359C49.9362 5.63181 49.485 4.91881 48.5734 4.11556C48.3026 3.92602 48.0409 3.72747 47.7972 3.52891C47.5535 3.33035 47.4091 3.04154 47.373 2.6715C47.3369 2.37366 47.3189 2.07583 47.3098 1.76897C47.3098 1.05597 47.5535 0.478343 48.0409 0.0631774C47.8604 0.027076 47.6799 0.00902534 47.4994 0C46.5517 0 45.7123 0.397115 44.9903 1.18232C44.2593 1.97655 43.8983 2.85201 43.8983 3.82675C43.8983 3.97115 43.9163 4.17873 43.9614 4.43144C44.1419 5.46033 44.6744 6.22749 45.5679 6.7329ZM66.6873 22.798L70.6043 25.5507L73.4473 22.8612L76.8318 25.2349L79.7379 22.1031H78.7271L77.4365 20.7673V11.5073L76.7415 11.6337L73.4563 8.88094L67.2288 13.177V22.2475L66.6873 22.798ZM85.5503 9.49466C85.1532 9.30513 84.7741 9.06144 84.4311 8.78166L79.2776 12.4189V18.5561L79.756 18.9352H82.8246L78.8444 25.8576C79.4582 25.3341 79.9275 24.9821 80.2704 24.8107C80.7488 24.576 81.2813 24.4587 81.8228 24.4587C82.4997 24.4587 83.0412 24.5399 83.4654 24.6933C83.8896 24.8468 84.3228 25.1266 84.7651 25.5327L89.8193 21.5525V15.325L89.4402 14.946H86.0557V14.6301L89.0611 9.35025C88.7452 9.53979 88.4925 9.64809 88.303 9.68419C87.9961 9.72029 87.6893 9.73834 87.3824 9.72932H86.7145C86.3084 9.73834 85.9113 9.65712 85.5503 9.49466ZM93.5648 25.641L96.3446 22.5453L94.9547 21.0922V12.8701L95.7128 12.3286L97.9601 14.0344V24.8468C97.9692 25.3702 97.9331 25.8937 97.8518 26.4172C97.7796 26.8233 97.6081 27.2024 97.3284 27.5363C97.1569 27.7439 96.9312 28.0508 96.6334 28.4569C96.2543 28.8991 95.794 29.2602 95.2706 29.5309C96.2363 29.4497 97.1027 29.215 97.8518 28.8269C98.6009 28.4389 99.3049 27.8612 99.9547 27.1031C100.442 26.5345 100.821 25.9388 101.092 25.3161C101.363 24.6933 101.543 24.0525 101.633 23.4027V11.2546L100.713 11.3539L97.7074 9.35928L95.5594 11.1012L94.8644 10.7221V4.7383L94.2597 3.3484L91.4168 6.10113V21.724L90.5593 22.6987L93.5648 25.641ZM108.772 6.95854L105.93 4.64805L103.619 7.17515L106.02 9.35928L108.772 6.95854ZM104.314 14.0976V22.6987L103.709 23.6193H104.783L107.247 25.7042L109.838 23.3305L113.159 26.0201L116.065 22.798L115.144 21.6337V13.5741L115.903 13.1951L117.581 15.0272V22.9244L120.524 25.4876L123.367 22.2655H122.04L121.282 21.029V12.4279L121.661 11.6337L120.903 11.7961L117.996 9.48563L115.153 12.4279L111.832 9.80152L109.079 12.8701H110.153L111.074 13.9442V21.8413L109.242 22.4731L108.069 21.5525V12.6987L108.448 12.1571L105.162 9.72029L102.473 12.5633L103.393 12.8521L104.314 14.0976ZM161.165 22.4189L160.253 21.2457V13.186L161.011 12.807L162.69 14.6391V22.5724L165.632 25.0995L168.475 21.8774H167.148L166.39 20.641V12.0398L166.769 11.2817L166.011 11.408L163.105 9.09754L160.262 12.0398L156.941 9.41343L154.188 12.482H155.262L156.183 13.5561V21.4893L155.046 23.0056L158.556 25.3161L161.165 22.4189ZM123.98 22.4821C124.404 22.4821 124.783 22.5363 125.135 22.6446C125.487 22.7529 125.821 22.9334 126.164 23.1951C126.498 23.4569 126.751 23.7096 126.904 23.9533C127.058 24.1969 127.193 24.5309 127.302 24.946L125.659 27.067L123.917 29.4046C124.359 29.1519 124.738 28.9984 125.054 28.9443C125.37 28.8901 125.83 28.863 126.444 28.863C127.157 28.9262 127.771 29.0977 128.276 29.3685C128.782 29.6392 129.242 30.0544 129.666 30.6049C130.677 30.2259 131.85 29.3775 133.195 28.0778C134.54 26.7692 135.208 25.6951 135.208 24.8558C135.208 24.7114 135.054 24.2511 134.747 23.502C134.441 22.7348 134.287 21.9226 134.287 21.0922V11.2546L129.892 8.50187L124.359 12.4189V21.7782L123.98 22.4821ZM134.892 11.6698H136.724V22.6446L136.282 23.502H137.356L139.666 25.271L142.636 21.8865H141.336L140.479 20.9659V11.8864L142.347 9.57589H140.479V3.53793L136.715 7.04879V9.44953L134.892 11.6698ZM142.888 22.4821L146.805 25.2619L153.638 20.4875V11.1914L152.943 11.3539L149.648 8.57407L143.421 12.8701V21.9496L142.888 22.4821ZM174.983 6.79608V9.73834C174.432 9.73834 173.972 9.7925 173.593 9.90983C173.214 10.0272 172.853 10.2528 172.501 10.5867C172.149 10.9207 171.95 11.3178 171.887 11.76C171.824 12.2023 171.788 12.7799 171.788 13.5019C171.788 13.7997 171.779 13.9983 171.751 14.1066C172.212 13.3665 172.862 13.0597 173.683 13.186C174.233 13.2673 174.667 13.5019 174.983 13.881V18.7817C174.017 19.2872 173.168 19.955 172.455 20.7763C171.652 21.724 171.111 22.6987 170.84 23.7186C171.201 23.4388 171.58 23.1861 171.977 22.9785C172.293 22.8161 172.735 22.6626 173.304 22.4912C173.511 22.428 173.755 22.3558 174.035 22.2836C174.306 22.2114 174.622 22.1753 174.983 22.1753V31.6248L179.125 28.2403L180.515 29.2511V23.872L182.284 24.4767L188.259 20.3341V6.41702L184.432 3.3484L180.515 6.63363V4.90076L179.757 4.26899V7.04879L179.125 7.49103V4.58487L175.903 2.11193L172.076 5.8755C172.392 5.68597 172.717 5.58669 173.051 5.58669C173.322 5.58669 173.593 5.63181 173.845 5.71304C174.414 5.92965 174.793 6.29066 174.983 6.79608ZM188.8 22.798L192.717 25.5507L199.577 20.7763V11.5073L198.882 11.6337L195.56 8.88094L189.333 13.177V22.2475L188.8 22.798ZM206.95 9.35928C206.544 9.16072 206.147 8.92606 205.777 8.66433L200.651 12.2654V18.4027L201.093 18.7817H204.162L200.181 25.7042C200.624 25.3251 200.994 25.0453 201.291 24.8468C201.842 24.4858 202.474 24.3052 203.187 24.3052C203.846 24.3052 204.378 24.3865 204.802 24.5399C205.226 24.7024 205.66 24.9731 206.102 25.3793L211.165 21.3991V15.1716L210.786 14.7925H207.402V14.4766L210.407 9.19682C210.091 9.38636 209.838 9.49466 209.649 9.53076C209.459 9.56686 209.153 9.57589 208.728 9.57589H208.069C207.636 9.57589 207.266 9.50368 206.95 9.35928ZM211.246 11.8232H213.079V22.798L212.636 23.6554H213.71L215.985 25.4244L218.99 22.0399H217.691L216.833 21.1193V12.0488L218.665 9.73834H216.833V3.70039L213.088 7.21125V9.61199L211.246 11.8232ZM70.9833 12.112L73.4473 13.9442V21.3088L72.653 22.1662L70.9743 20.7132L70.9833 12.112ZM132.202 25.0724C132.708 25.4334 132.96 25.8847 132.96 26.4352C132.96 26.6879 132.933 26.8775 132.897 27.0038C132.771 27.1934 132.672 27.3197 132.608 27.3829C132.437 27.5544 132.22 27.6627 131.977 27.6988C131.706 27.7439 131.345 27.6085 130.903 27.3017C130.46 26.9948 129.793 26.8414 128.908 26.8414C128.339 26.8414 127.825 26.8955 127.356 27.0038C126.895 27.1121 126.408 27.2926 125.903 27.5453L130.524 21.8504V22.5814C130.524 23.0056 130.56 23.3486 130.632 23.6283C130.704 23.8991 130.867 24.1699 131.119 24.4226C131.48 24.6392 131.841 24.8648 132.202 25.0724ZM128.123 11.7329L130.524 13.5019V20.65L129.829 21.4081L128.123 19.7023V11.7329ZM32.7249 17.2655V12.6445L35.0354 15.5507L32.7249 17.2655ZM86.8951 12.0488L84.747 15.8756H83.1315V11.7329C83.7632 12.1301 84.4492 12.3376 85.1893 12.3376C85.7759 12.3286 86.3445 12.2384 86.8951 12.0488ZM147.184 11.7961L149.648 13.6644V21.029L148.863 21.8865L147.184 20.3973V11.7961ZM83.7271 18.177H86.0376V22.2565C85.7127 22.1392 85.3788 22.0489 85.0449 21.9857C84.8192 21.9587 84.368 21.9406 83.673 21.9406C83.2669 21.9316 82.8697 21.9767 82.4726 22.067C82.1387 22.1482 81.7325 22.2926 81.2723 22.4821L83.7271 18.177ZM179.125 9.57589L179.757 9.03437V27.0851L179.125 26.706V9.57589ZM180.515 8.56505L182.446 7.32858L183.836 8.33942V20.2258C183.178 19.8467 182.826 19.6482 182.762 19.6211L182.067 19.3955C181.553 19.2691 181.029 19.1427 180.515 19.0164V8.56505ZM11.5694 9.95495C11.777 9.95495 11.9485 9.9369 12.0749 9.89177V21.3991C11.2806 21.7962 10.4052 22.0038 9.51165 22.0038C8.98818 22.0038 8.45568 21.9406 7.93221 21.8143C7.40874 21.6879 6.99358 21.5164 6.69574 21.3088L10.2969 17.7077V9.80152C10.4503 9.88275 10.6127 9.9369 10.7842 9.94593C10.9647 9.95495 11.0821 9.96398 11.1452 9.96398L11.5694 9.95495ZM193.105 12.112L195.569 13.9442V21.3088L194.811 22.1662L193.105 20.7132V12.112ZM49.9272 9.10657L51.1005 8.18598L53.5373 10.6499V22.0038L52.5536 23.0146L49.9272 20.4875V9.10657ZM207.456 12.112C207.727 12.0669 207.997 11.9947 208.241 11.8864L206.093 15.7131H204.477V11.5705C205.1 11.9676 205.822 12.1752 206.562 12.1752C206.887 12.1752 207.185 12.1481 207.456 12.112ZM205.082 18.0236H207.393V22.1031C207.068 21.9857 206.734 21.8955 206.4 21.8323C206.174 21.7962 205.723 21.7872 205.019 21.7872C204.613 21.7782 204.207 21.8233 203.819 21.9135C203.421 22.0218 203.024 22.1572 202.645 22.3287L205.082 18.0236ZM58.2395 9.10657L59.3858 8.18598L61.8497 10.6499V22.0038L60.8388 23.0146L58.2486 20.4875L58.2395 9.10657Z" fill="white"/>
</svg>

<svg width="220" height="32" fill="none" xmlns="http://www.w3.org/2000/svg"><path fill-rule="evenodd" clip-rule="evenodd" d="M4.124 11.715c.433-1.173 1.028-2.094 1.787-2.77.099-.046.207-.064.315-.082.109-.01.37-.018.795-.018.234 0 .433.018.613.045.18.036.361.1.55.19.19.099.416.225.669.397L5.63 12.04l.758.605v8.538A4.518 4.518 0 014.43 19.35c-.631-1.092-.947-2.563-.947-4.395-.01-.993.207-2.076.64-3.24zm-.298-3.276c.19 0 .433.036.73.099.299.063.57.126.822.19-1.769.785-3.14 2.075-4.107 3.89a11.025 11.025 0 00-1.263 5.189c0 2.32.803 4.305 2.419 5.957 1.615 1.651 3.583 2.482 5.893 2.482 2.23 0 4.125-.858 5.66-2.563 1.534-1.706 2.31-3.719 2.31-6.038a5.165 5.165 0 01-.713 1.218 7.996 7.996 0 01-1.12 1.092 5.06 5.06 0 01-.857.614 11.93 11.93 0 01-.984.46V9.639c.506-.208.912-.424 1.219-.65.307-.216.64-.541 1.002-.965.93-1.03 1.444-2.185 1.552-3.448-.677.442-1.282.767-1.823.984a6.855 6.855 0 01-1.814.415c-.109 0-.253.009-.443.027-.74 0-1.84-.289-3.303-.867C7.544 4.558 6.39 4.27 5.54 4.27c-1.67 0-3.005.785-4.016 2.338C.622 7.997.161 9.648.161 11.57c.127-.586.434-1.146.921-1.678.361-.397.776-.74 1.236-1.011a2.753 2.753 0 011.508-.442zm15.397 17.644l2.753-3.068-1.39-1.454V13.34l.794-.532 2.211 1.679v10.848c0 .614-.036 1.137-.108 1.57a2.448 2.448 0 01-.488 1.12l-.776.965a3.774 3.774 0 01-1.308 1.03c1.056-.109 1.922-.344 2.59-.714.677-.37 1.372-.956 2.085-1.75.523-.596.92-1.183 1.182-1.77.27-.604.442-1.245.524-1.895V11.733l-.948.063-2.97-1.994-2.147 1.768-.695-.379v-6.01L19.9 3.818 17.084 6.57v15.587l-.857 1.011 2.996 2.915zm9.422-3.447l5.09 3.222 4.838-5.09-2.626 1.868-3.222-2.31v-2.149l5.758-4.305-3.664-4.937-5.849 4.08v8.917l-.325.704zM45.568 6.733v5.912c-.424.045-.767.117-1.029.225a3.262 3.262 0 00-.84.542c-.848.658-1.263 1.498-1.263 2.527-.009.325.036.64.127.947.297-.252.586-.424.866-.505.289-.081.64-.126 1.065-.126.208 0 .379.027.505.063.127.045.316.126.569.252v5.813l4.368 4.395 4.017-4.08 4.837 4.08 7.049-6.832V8.249L61.47 4.901l-3.222 2.906L53.853 4.9l-3.917 3.285V6.264c0-.632-.451-1.345-1.363-2.148a13.41 13.41 0 01-.776-.587c-.243-.199-.388-.487-.424-.857a9.904 9.904 0 01-.063-.903c0-.713.243-1.29.73-1.706A3.689 3.689 0 0047.5 0c-.948 0-1.788.397-2.51 1.182-.73.795-1.092 1.67-1.092 2.645 0 .144.018.352.063.604.18 1.03.713 1.796 1.607 2.302zm21.12 16.065l3.916 2.753 2.843-2.69 3.385 2.374 2.906-3.132h-1.01l-1.291-1.336v-9.26l-.695.127-3.286-2.753-6.227 4.296v9.07l-.542.551zM85.55 9.495a5.6 5.6 0 01-1.119-.713l-5.153 3.637v6.137l.478.38h3.069l-3.98 6.922c.613-.524 1.082-.876 1.425-1.047a3.523 3.523 0 011.553-.352c.677 0 1.218.08 1.642.234.425.154.858.434 1.3.84l5.054-3.98v-6.228l-.379-.379h-3.384v-.316l3.005-5.28c-.316.19-.569.298-.758.334a6.292 6.292 0 01-.92.045h-.668a2.69 2.69 0 01-1.165-.234zm8.015 16.146l2.78-3.096-1.39-1.453V12.87l.758-.541 2.247 1.705v10.813a9.176 9.176 0 01-.108 1.57 2.369 2.369 0 01-.524 1.12 23.25 23.25 0 00-.695.92 4.53 4.53 0 01-1.362 1.074c.965-.081 1.832-.316 2.58-.704.75-.388 1.454-.966 2.104-1.724a7.106 7.106 0 001.137-1.787 7.294 7.294 0 00.541-1.913V11.255l-.92.099-3.006-1.995-2.148 1.742-.695-.379V4.738l-.604-1.39-2.843 2.753v15.623l-.858.975 3.006 2.942zm15.207-18.682l-2.842-2.311-2.311 2.527 2.401 2.184 2.752-2.4zm-4.458 7.139v8.6l-.605.921h1.074l2.464 2.085 2.591-2.373 3.321 2.69 2.906-3.223-.921-1.164v-8.06l.759-.379 1.678 1.832v7.897l2.943 2.564 2.843-3.223h-1.327l-.758-1.236v-8.601l.379-.794-.758.162-2.907-2.31-2.843 2.942-3.321-2.626-2.753 3.068h1.074l.921 1.074v7.897l-1.832.632-1.173-.92v-8.854l.379-.542-3.286-2.437-2.689 2.843.92.29.921 1.245zm56.851 8.32l-.912-1.172v-8.06l.758-.379 1.679 1.832v7.933l2.942 2.527 2.843-3.222h-1.327l-.758-1.236V12.04l.379-.758-.758.126-2.906-2.31-2.843 2.942-3.321-2.627-2.753 3.069h1.074l.921 1.074v7.933l-1.137 1.517 3.51 2.31 2.609-2.897zm-37.185.064c.424 0 .803.054 1.155.163a3.26 3.26 0 011.029.55c.334.262.587.515.74.758.154.244.289.578.398.993l-1.643 2.121-1.742 2.338c.442-.253.821-.407 1.137-.46.316-.055.776-.082 1.39-.082.713.063 1.327.235 1.832.506.506.27.966.685 1.39 1.236 1.011-.38 2.184-1.227 3.529-2.527 1.345-1.309 2.013-2.383 2.013-3.222 0-.145-.154-.605-.461-1.354a6.48 6.48 0 01-.46-2.41v-9.837l-4.395-2.753-5.533 3.917v9.36l-.379.703zm10.912-10.812h1.832v10.975l-.442.857h1.074l2.31 1.769 2.97-3.384h-1.3l-.857-.921v-9.08l1.868-2.31h-1.868V3.538l-3.764 3.51V9.45l-1.823 2.22zm7.996 10.812l3.917 2.78 6.833-4.774V11.19l-.695.163-3.295-2.78-6.227 4.296v9.08l-.533.532zm32.095-15.686v2.942c-.551 0-1.011.055-1.39.172-.379.117-.74.343-1.092.677a1.965 1.965 0 00-.614 1.173c-.063.442-.099 1.02-.099 1.742 0 .298-.009.496-.037.605.461-.74 1.111-1.047 1.932-.921.55.081.984.316 1.3.695v4.9a8.618 8.618 0 00-2.528 1.995c-.803.948-1.344 1.923-1.615 2.943a7.67 7.67 0 011.137-.74c.316-.163.758-.316 1.327-.488.207-.063.451-.135.731-.207.271-.073.587-.109.948-.109v9.45l4.142-3.385 1.39 1.011v-5.379l1.769.605 5.975-4.143V6.417l-3.827-3.069-3.917 3.286V4.9l-.758-.632v2.78l-.632.442V4.585l-3.222-2.473-3.827 3.763c.316-.189.641-.288.975-.288.271 0 .542.045.794.126.569.217.948.578 1.138 1.083zM188.8 22.798l3.917 2.753 6.86-4.775v-9.269l-.695.127-3.322-2.753-6.227 4.296v9.07l-.533.551zm18.15-13.439a8.537 8.537 0 01-1.173-.695l-5.126 3.601v6.138l.442.379h3.069l-3.981 6.922c.443-.379.813-.659 1.11-.857.551-.361 1.183-.542 1.896-.542.659 0 1.191.082 1.615.235.424.162.858.433 1.3.84l5.063-3.98v-6.228l-.379-.38h-3.384v-.315l3.005-5.28c-.316.19-.569.298-.758.334-.19.036-.496.045-.921.045h-.659c-.433 0-.803-.072-1.119-.217zm4.296 2.464h1.833v10.975l-.443.857h1.074l2.275 1.77 3.005-3.385h-1.299l-.858-.92v-9.071l1.832-2.31h-1.832V3.7l-3.745 3.511v2.401l-1.842 2.211zm-140.263.289l2.464 1.832v7.365l-.794.857-1.679-1.453.01-8.601zm61.219 12.96c.506.361.758.813.758 1.363 0 .253-.027.443-.063.569-.126.19-.225.316-.289.379-.171.171-.388.28-.631.316-.271.045-.632-.09-1.074-.397-.443-.307-1.11-.46-1.995-.46-.569 0-1.083.053-1.552.162a6.692 6.692 0 00-1.453.541l4.621-5.695v.731c0 .425.036.768.108 1.047.072.271.235.542.487.795.361.216.722.442 1.083.65zm-4.079-13.34l2.401 1.77v7.148l-.695.758-1.706-1.706v-7.97zm-95.398 5.534v-4.621l2.31 2.906-2.31 1.714zm54.17-5.217l-2.148 3.827h-1.615v-4.143a3.802 3.802 0 002.057.605 5.455 5.455 0 001.706-.29zm60.289-.253l2.464 1.868v7.365l-.785.858-1.679-1.49v-8.6zm-63.457 6.381h2.31v4.08a6.479 6.479 0 00-.992-.271c-.226-.027-.677-.045-1.372-.045a4.89 4.89 0 00-1.2.126c-.334.081-.74.226-1.2.415l2.454-4.305zm95.398-8.601l.632-.542v18.051l-.632-.379V9.576zm1.39-1.011l1.931-1.236 1.39 1.01v11.887c-.658-.38-1.01-.578-1.074-.605l-.695-.226c-.514-.126-1.038-.252-1.552-.379V8.566zM11.569 9.955c.208 0 .38-.018.506-.063v11.507a5.726 5.726 0 01-2.563.605 6.75 6.75 0 01-1.58-.19c-.523-.126-.938-.298-1.236-.505l3.6-3.601V9.802c.154.08.317.135.488.144.18.009.298.018.361.018l.424-.01zm181.536 2.157l2.464 1.832v7.365l-.758.857-1.706-1.453v-8.601zM49.927 9.107l1.173-.921 2.437 2.464v11.354l-.983 1.01-2.627-2.526V9.107zm157.529 3.005c.271-.045.541-.117.785-.226l-2.148 3.827h-1.616V11.57a3.872 3.872 0 002.085.605c.325 0 .623-.027.894-.063zm-2.374 5.912h2.311v4.08a6.47 6.47 0 00-.993-.272c-.226-.036-.677-.045-1.381-.045a4.846 4.846 0 00-1.2.127 7.854 7.854 0 00-1.174.415l2.437-4.305zM58.239 9.107l1.147-.921 2.464 2.464v11.354l-1.011 1.01-2.59-2.526-.01-11.381z" fill="#fff"/></svg>
